src/assets/flags/qa.svg

<?xml version="1.0" encoding="UTF-8"?>
<svg xmlns="http://www.w3.org/2000/svg" xmlns:xlink="http://www.w3.org/1999/xlink" width="25px" height="px" viewBox="0 0 25 19" version="1.1">
<g id="surface1">
<rect x="0" y="0" width="25" height="19" style="fill:rgb(55.29412%,10.588235%,23.921569%);fill-opacity:1;stroke:none;"/>
<path style=" stroke:none;fill-rule:nonzero;fill:rgb(100%,100%,100%);fill-opacity:1;" d="M 0 0 L 0 19 L 6.1875 19 L 10.007812 17.941406 L 6.1875 16.890625 L 10.003906 15.832031 L 6.1875 14.777344 L 10.003906 13.722656 L 6.1875 12.667969 L 10.007812 11.609375 L 6.1875 10.558594 L 10.003906 9.5 L 6.1875 8.441406 L 10.003906 7.390625 L 6.1875 6.332031 L 10.007812 5.277344 L 6.1875 4.222656 L 10.003906 3.167969 L 6.1875 2.109375 L 10.007812 1.058594 L 6.183594 0 Z M 0 0 "/>
</g>
</svg>

<svg xmlns="http://www.w3.org/2000/svg" width="25" height="px" viewBox="0 0 25 19"><path d="M0 0h25v19H0z" style="fill:#8d1b3d;fill-opacity:1;stroke:none"/><path d="M0 0v19h6.188l3.82-1.059-3.82-1.05 3.816-1.059-3.816-1.055 3.816-1.054-3.816-1.055 3.82-1.059-3.82-1.05L10.003 9.5 6.188 8.441l3.816-1.05-3.816-1.059 3.82-1.055-3.82-1.054 3.816-1.055-3.816-1.059 3.82-1.05L6.184 0Zm0 0" style="stroke:none;fill-rule:nonzero;fill:#fff;fill-opacity:1"/></svg>
